svgs/light/computer-speaker.svg

<svg xmlns="http://www.w3.org/2000/svg" viewBox="0 0 640 512"><!-- Font Awesome Pro 6.0.0-alpha2 by @fontawesome - https://fontawesome.com License - https://fontawesome.com/license (Commercial License) --><path d="M480 192C506.5 192 528 170.5 528 144S506.5 96 480 96S432 117.5 432 144S453.5 192 480 192ZM480 128C488.875 128 496 135.125 496 144S488.875 160 480 160S464 152.875 464 144S471.125 128 480 128ZM480 224C427 224 384 267 384 320S427 416 480 416S576 373 576 320S533 224 480 224ZM480 384C444.625 384 416 355.375 416 320S444.625 256 480 256S544 284.625 544 320S515.375 384 480 384ZM480 296C466.75 296 456 306.75 456 320S466.75 344 480 344S504 333.25 504 320S493.25 296 480 296ZM576 32H384C348.654 32 320 60.652 320 96V416C320 451.346 348.654 480 384 480H576C611.346 480 640 451.346 640 416V96C640 60.652 611.346 32 576 32ZM608 416C608 433.672 593.674 448 576 448H384C366.326 448 352 433.672 352 416V96C352 78.326 366.326 64 384 64H576C593.674 64 608 78.326 608 96V416ZM48 64H272C280.844 64 288 56.844 288 48S280.844 32 272 32H48C21.531 32 0 53.531 0 80V336C0 362.469 21.531 384 48 384H272C280.844 384 288 376.844 288 368S280.844 352 272 352H48C39.172 352 32 344.812 32 336V80C32 71.188 39.172 64 48 64ZM272 448H112C103.156 448 96 455.156 96 464S103.156 480 112 480H272C280.844 480 288 472.844 288 464S280.844 448 272 448Z"/></svg>

<svg xmlns="http://www.w3.org/2000/svg" viewBox="0 0 640 512"><!--! Font Awesome Pro 6.3.0 by @fontawesome - https://fontawesome.com License - https://fontawesome.com/license (Commercial License) Copyright 2023 Fonticons, Inc. --><path d="M480 192c26.5 0 48-21.5 48-48S506.5 96 480 96s-48 21.5-48 48S453.5 192 480 192zM480 128c8.875 0 16 7.125 16 16S488.9 160 480 160s-16-7.125-16-16S471.1 128 480 128zM480 224c-53 0-96 43-96 96s43 96 96 96s96-43 96-96S533 224 480 224zM480 384c-35.38 0-64-28.62-64-64s28.62-64 64-64s64 28.62 64 64S515.4 384 480 384zM480 296c-13.25 0-24 10.75-24 24s10.75 24 24 24s24-10.75 24-24S493.3 296 480 296zM576 32h-192c-35.35 0-64 28.65-64 64v320c0 35.35 28.65 64 64 64h192c35.35 0 64-28.65 64-64V96C640 60.65 611.3 32 576 32zM608 416c0 17.67-14.33 32-32 32h-192c-17.67 0-32-14.33-32-32V96c0-17.67 14.33-32 32-32h192c17.67 0 32 14.33 32 32V416zM48 64h224C280.8 64 288 56.84 288 48S280.8 32 272 32H47.1c-26.47 0-48 21.53-48 48L0 336C0 362.5 21.53 384 48 384h224C280.8 384 288 376.8 288 368S280.8 352 272 352h-224C39.17 352 32 344.8 32 336v-256C32 71.19 39.17 64 48 64zM272 448h-160C103.2 448 96 455.2 96 464S103.2 480 112 480h160C280.8 480 288 472.8 288 464S280.8 448 272 448z"/></svg>
